X:1
T:Polonäs i Dm efter Conrad Sandsten
S:efter Conrad Sandsten
B:SMUS - katalog M170 bild 23 
B:Conrad Sandstens notbok
O:Kumla, Närke
Z:Nils L
M:3/4
L:1/16
R:Polonäs
K:Dm
A2d^c d2e2 f2a2 | agbg a4>^c4 | d4 e2ge f2af | e2d^c A2G2 F2EF | 
A2d^c d2e2 f2a2 | gabg a4>^c4 | d4 e2ge f2af | fed^c d4 D4 ::
a2 | a2ba g2eg f2^c2 | A2BA G2EG F2D2 | ^C2D2 E2A2 G2E2 | F2>D2 A,8 |    
A2d^c d2e2 f2a2 | gabg a4>^c4 | d4 e2ge f2af | fed^c d4 D4 :|

